apps/ui-icons/svgs/key.svg

<svg viewBox="0 0 24 24" width="24" height="24"  fill="none" xmlns="http://www.w3.org/2000/svg">
<path fill-rule="evenodd" clip-rule="evenodd" d="M6.5 17C9.16552 17 11.3882 15.1038 11.8926 12.5868L14.2934 12.5H15H17H19H20H22V11.5C22 10.3954 21.6046 10 20.5 10H11.793C11.14 7.6915 9.01755 6 6.5 6C3.46243 6 1 8.46243 1 11.5C1 14.5376 3.46243 17 6.5 17ZM6.5 15C8.433 15 10 13.433 10 11.5C10 9.567 8.433 8 6.5 8C4.567 8 3 9.567 3 11.5C3 13.433 4.567 15 6.5 15Z" fill="#171D26"/>
<path d="M18 13.5H22V15.5H18V13.5Z" fill="#171D26"/>
</svg>

<svg xmlns="http://www.w3.org/2000/svg" width="24" height="24" fill="none" viewBox="0 0 24 24">
  <path fill="#171D26" fill-rule="evenodd" d="M6.5 17a5.502 5.502 0 0 0 5.393-4.413l2.4-.087H22v-1c0-1.105-.395-1.5-1.5-1.5h-8.707A5.5 5.5 0 1 0 6.5 17Zm0-2a3.5 3.5 0 1 0 0-7 3.5 3.5 0 0 0 0 7Z" clip-rule="evenodd"/>
  <path fill="#171D26" d="M18 13.5h4v2h-4v-2Z"/>
</svg>
